;Project Control Board 2-F.Mask
;Created by Estlcam version 11 build 11.122
;Machining time about 00:15:19 hours

G90
M03 S10000
G00 Z5.0000 F500


;No. 1: Drill 1
G00 X5.1558 Y27.4139 F2100
G00 Z0.5000 F500
G01 Z-0.2000 F48 S10000
G00 Z0.5000 F500
G00 Z0.3000
G01 Z-0.4000 F48
G00 Z0.5000 F500
G00 Z0.1000
G01 Z-0.5000 F48
G00 Z5.0000 F500


;No. 2: Drill 2
G00 X65.1507 Y6.4081 Z5.0000 F2100
G00 Z0.5000 F500
G01 Z-0.2000 F48
G00 Z0.5000 F500
G00 Z0.3000
G01 Z-0.4000 F48
G00 Z0.5000 F500
G00 Z0.1000
G01 Z-0.5000 F48
G00 Z5.0000 F500


;No. 3: Part 1
G00 X-0.3698 Y-0.7929 Z5.0000 F2100
G00 Z0.5000 F500
G01 Z-0.2000 F48
G01 X-0.2533 Y-0.8851 F180
G01 X-0.1277 Y-0.9671
G01 X0.3599 Y-1.2303
G03 X1.6120 Y-1.5000 I1.2358 J2.6958
G01 X68.8690
G01 X69.0188 Y-1.4925
G01 X69.0815 Y-1.4850
G03 X71.9570 Y1.6120 I-0.2126 J3.0808
G01 X71.9560 Y32.2422
G01 X71.9485 Y32.3920
G01 X71.9415 Y32.4510
G03 X68.8450 Y35.3300 I-3.0929 J-0.2219
G01 X1.5880 Y35.3292
G01 X1.4382 Y35.3217
G01 X1.3781 Y35.3146
G03 X-1.4969 Y32.3346 I0.2148 J-3.0841
G01 X-1.5000 Y32.2176
G01 X-1.4990 Y1.5870
G01 X-1.4915 Y1.4372
G01 X-1.4845 Y1.3778
G01 X-1.4380 Y1.0126
G03 X-1.3285 Y0.6069 I1.5866 J0.2108
G01 X-1.1160 Y0.1256
G03 X-0.3698 Y-0.7929 I2.9995 J1.6746
G01 Z-0.4000 F48
G01 X-0.2533 Y-0.8851 F180
G01 X-0.1277 Y-0.9671
G01 X0.3599 Y-1.2303
G03 X1.6120 Y-1.5000 I1.2358 J2.6958
G01 X68.8690
G01 X69.0188 Y-1.4925
G01 X69.0815 Y-1.4850
G03 X71.9570 Y1.6120 I-0.2126 J3.0808
G01 X71.9560 Y32.2422
G01 X71.9485 Y32.3920
G01 X71.9415 Y32.4510
G03 X68.8450 Y35.3300 I-3.0929 J-0.2219
G01 X1.5880 Y35.3292
G01 X1.4382 Y35.3217
G01 X1.3781 Y35.3146
G03 X-1.4969 Y32.3346 I0.2148 J-3.0841
G01 X-1.5000 Y32.2176
G01 X-1.4990 Y1.5870
G01 X-1.4915 Y1.4372
G01 X-1.4845 Y1.3778
G01 X-1.4380 Y1.0126
G03 X-1.3285 Y0.6069 I1.5866 J0.2108
G01 X-1.1160 Y0.1256
G03 X-0.3698 Y-0.7929 I2.9995 J1.6746
G01 Z-0.6000 F48
G01 X-0.2533 Y-0.8851 F180
G01 X-0.1277 Y-0.9671
G01 X0.3599 Y-1.2303
G03 X1.6120 Y-1.5000 I1.2358 J2.6958
G01 X68.8690
G01 X69.0188 Y-1.4925
G01 X69.0815 Y-1.4850
G03 X71.9570 Y1.6120 I-0.2126 J3.0808
G01 X71.9560 Y32.2422
G01 X71.9485 Y32.3920
G01 X71.9415 Y32.4510
G03 X68.8450 Y35.3300 I-3.0929 J-0.2219
G01 X1.5880 Y35.3292
G01 X1.4382 Y35.3217
G01 X1.3781 Y35.3146
G03 X-1.4969 Y32.3346 I0.2148 J-3.0841
G01 X-1.5000 Y32.2176
G01 X-1.4990 Y1.5870
G01 X-1.4915 Y1.4372
G01 X-1.4845 Y1.3778
G01 X-1.4380 Y1.0126
G03 X-1.3285 Y0.6069 I1.5866 J0.2108
G01 X-1.1160 Y0.1256
G03 X-0.3698 Y-0.7929 I2.9995 J1.6746
G01 Z-0.8000 F48
G01 X-0.2533 Y-0.8851 F180
G01 X-0.1277 Y-0.9671
G01 X0.3599 Y-1.2303
G03 X1.6120 Y-1.5000 I1.2358 J2.6958
G01 X68.8690
G01 X69.0188 Y-1.4925
G01 X69.0815 Y-1.4850
G03 X71.9570 Y1.6120 I-0.2126 J3.0808
G01 X71.9560 Y32.2422
G01 X71.9485 Y32.3920
G01 X71.9415 Y32.4510
G03 X68.8450 Y35.3300 I-3.0929 J-0.2219
G01 X1.5880 Y35.3292
G01 X1.4382 Y35.3217
G01 X1.3781 Y35.3146
G03 X-1.4969 Y32.3346 I0.2148 J-3.0841
G01 X-1.5000 Y32.2176
G01 X-1.4990 Y1.5870
G01 X-1.4915 Y1.4372
G01 X-1.4845 Y1.3778
G01 X-1.4380 Y1.0126
G03 X-1.3285 Y0.6069 I1.5866 J0.2108
G01 X-1.1160 Y0.1256
G03 X-0.3698 Y-0.7929 I2.9995 J1.6746
G01 Z-1.0000 F48
G01 X-0.2533 Y-0.8851 F180
G01 X-0.1277 Y-0.9671
G01 X0.3599 Y-1.2303
G03 X1.6120 Y-1.5000 I1.2358 J2.6958
G01 X68.8690
G01 X69.0188 Y-1.4925
G01 X69.0815 Y-1.4850
G03 X71.9570 Y1.6120 I-0.2126 J3.0808
G01 X71.9560 Y32.2422
G01 X71.9485 Y32.3920
G01 X71.9415 Y32.4510
G03 X68.8450 Y35.3300 I-3.0929 J-0.2219
G01 X1.5880 Y35.3292
G01 X1.4382 Y35.3217
G01 X1.3781 Y35.3146
G03 X-1.4969 Y32.3346 I0.2148 J-3.0841
G01 X-1.5000 Y32.2176
G01 X-1.4990 Y1.5870
G01 X-1.4915 Y1.4372
G01 X-1.4845 Y1.3778
G01 X-1.4380 Y1.0126
G03 X-1.3285 Y0.6069 I1.5866 J0.2108
G01 X-1.1160 Y0.1256
G03 X-0.3698 Y-0.7929 I2.9995 J1.6746
G01 Z-1.2000 F48
G01 X-0.2533 Y-0.8851 F180
G01 X-0.1277 Y-0.9671
G01 X0.3599 Y-1.2303
G03 X1.6120 Y-1.5000 I1.2358 J2.6958
G01 X68.8690
G01 X69.0188 Y-1.4925
G01 X69.0815 Y-1.4850
G03 X71.9570 Y1.6120 I-0.2126 J3.0808
G01 X71.9560 Y32.2422
G01 X71.9485 Y32.3920
G01 X71.9415 Y32.4510
G03 X68.8450 Y35.3300 I-3.0929 J-0.2219
G01 X1.5880 Y35.3292
G01 X1.4382 Y35.3217
G01 X1.3781 Y35.3146
G03 X-1.4969 Y32.3346 I0.2148 J-3.0841
G01 X-1.5000 Y32.2176
G01 X-1.4990 Y1.5870
G01 X-1.4915 Y1.4372
G01 X-1.4845 Y1.3778
G01 X-1.4380 Y1.0126
G03 X-1.3285 Y0.6069 I1.5866 J0.2108
G01 X-1.1160 Y0.1256
G03 X-0.3698 Y-0.7929 I2.9995 J1.6746
G01 Z-1.4000 F48
G01 X-0.2533 Y-0.8851 F180
G01 X-0.1277 Y-0.9671
G01 X0.3599 Y-1.2303
G03 X1.6120 Y-1.5000 I1.2358 J2.6958
G01 X68.8690
G01 X69.0188 Y-1.4925
G01 X69.0815 Y-1.4850
G03 X71.9570 Y1.6120 I-0.2126 J3.0808
G01 X71.9560 Y32.2422
G01 X71.9485 Y32.3920
G01 X71.9415 Y32.4510
G03 X68.8450 Y35.3300 I-3.0929 J-0.2219
G01 X1.5880 Y35.3292
G01 X1.4382 Y35.3217
G01 X1.3781 Y35.3146
G03 X-1.4969 Y32.3346 I0.2148 J-3.0841
G01 X-1.5000 Y32.2176
G01 X-1.4990 Y1.5870
G01 X-1.4915 Y1.4372
G01 X-1.4845 Y1.3778
G01 X-1.4380 Y1.0126
G03 X-1.3285 Y0.6069 I1.5866 J0.2108
G01 X-1.1160 Y0.1256
G03 X-0.3698 Y-0.7929 I2.9995 J1.6746
G01 Z-1.6000 F48
G01 X-0.2533 Y-0.8851 F180
G01 X-0.1277 Y-0.9671
G01 X0.3599 Y-1.2303
G03 X1.6120 Y-1.5000 I1.2358 J2.6958
G01 X68.8690
G01 X69.0188 Y-1.4925
G01 X69.0815 Y-1.4850
G03 X71.9570 Y1.6120 I-0.2126 J3.0808
G01 X71.9560 Y32.2422
G01 X71.9485 Y32.3920
G01 X71.9415 Y32.4510
G03 X68.8450 Y35.3300 I-3.0929 J-0.2219
G01 X1.5880 Y35.3292
G01 X1.4382 Y35.3217
G01 X1.3781 Y35.3146
G03 X-1.4969 Y32.3346 I0.2148 J-3.0841
G01 X-1.5000 Y32.2176
G01 X-1.4990 Y1.5870
G01 X-1.4915 Y1.4372
G01 X-1.4845 Y1.3778
G01 X-1.4380 Y1.0126
G03 X-1.3285 Y0.6069 I1.5866 J0.2108
G01 X-1.1160 Y0.1256
G03 X-0.3698 Y-0.7929 I2.9995 J1.6746
G01 Z-1.8000 F48
G01 X-0.2533 Y-0.8851 F180
G01 X-0.1277 Y-0.9671
G01 X0.3599 Y-1.2303
G03 X1.6120 Y-1.5000 I1.2358 J2.6958
G01 X68.8690
G01 X69.0188 Y-1.4925
G01 X69.0815 Y-1.4850
G03 X71.9570 Y1.6120 I-0.2126 J3.0808
G01 X71.9560 Y32.2422
G01 X71.9485 Y32.3920
G01 X71.9415 Y32.4510
G03 X68.8450 Y35.3300 I-3.0929 J-0.2219
G01 X1.5880 Y35.3292
G01 X1.4382 Y35.3217
G01 X1.3781 Y35.3146
G03 X-1.4969 Y32.3346 I0.2148 J-3.0841
G01 X-1.5000 Y32.2176
G01 X-1.4990 Y1.5870
G01 X-1.4915 Y1.4372
G01 X-1.4845 Y1.3778
G01 X-1.4380 Y1.0126
G03 X-1.3285 Y0.6069 I1.5866 J0.2108
G01 X-1.1160 Y0.1256
G03 X-0.3698 Y-0.7929 I2.9995 J1.6746
G01 Z-1.9000 F48
G01 X-0.2533 Y-0.8851 F180
G01 X-0.1277 Y-0.9671
G01 X0.3599 Y-1.2303
G03 X1.6120 Y-1.5000 I1.2358 J2.6958
G01 X68.8690
G01 X69.0188 Y-1.4925
G01 X69.0815 Y-1.4850
G03 X71.9570 Y1.6120 I-0.2126 J3.0808
G01 X71.9560 Y32.2422
G01 X71.9485 Y32.3920
G01 X71.9415 Y32.4510
G03 X68.8450 Y35.3300 I-3.0929 J-0.2219
G01 X1.5880 Y35.3292
G01 X1.4382 Y35.3217
G01 X1.3781 Y35.3146
G03 X-1.4969 Y32.3346 I0.2148 J-3.0841
G01 X-1.5000 Y32.2176
G01 X-1.4990 Y1.5870
G01 X-1.4915 Y1.4372
G01 X-1.4845 Y1.3778
G01 X-1.4380 Y1.0126
G03 X-1.3285 Y0.6069 I1.5866 J0.2108
G01 X-1.1160 Y0.1256
G03 X-0.3698 Y-0.7929 I2.9995 J1.6746
G00 Z5.0000 F500
G00 X0.0000 Y0.0000 F2100

M05
